icons/arrow-big-right.svg

<svg width="24" height="24" viewBox="0 0 24 24" fill="none" xmlns="http://www.w3.org/2000/svg">
<path d="M13.3935 19.4856C13.3935 20.4134 14.5641 20.8525 15.1991 20.1628C16.7394 16.9023 19.038 14.0742 22 12C19.038 9.92588 16.7394 7.09777 15.1991 3.83717C14.5641 3.14752 13.3935 3.58658 13.3935 4.51442V7.95047C13.3935 8.50959 12.9298 8.96285 12.3577 8.96285L4.07154 8.96285C2.92746 8.96285 2 9.86936 2 10.9876L2 13.0124C2 14.1306 2.92746 15.0371 4.07154 15.0371H12.3577C12.9298 15.0371 13.3935 15.4904 13.3935 16.0495V19.4856Z" stroke="black" stroke-width="2" stroke-linecap="round" stroke-linejoin="round"/>
</svg>

<svg xmlns="http://www.w3.org/2000/svg" width="24" height="24" viewBox="0 0 24 24" fill="none" stroke="currentColor" stroke-width="2" stroke-linecap="round" stroke-linejoin="round">
<path d="M13.394 19.486c0 .927 1.17 1.366 1.805.677C16.74 16.903 19.038 14.074 22 12c-2.962-2.074-5.26-4.902-6.8-8.163-.636-.69-1.806-.25-1.806.677V7.95c0 .56-.464 1.013-1.036 1.013H4.072C2.927 8.963 2 9.869 2 10.988v2.024c0 1.119.927 2.025 2.072 2.025h8.286c.572 0 1.035.453 1.035 1.012z"/>
</svg>
